X: 22
T:Jigg. TBe.022
M:6/8
L:1/8
Q:100
S:Thomas Bennet MS,1718, VWML
R:jigg
O:England
H:1718
Z:vmp.C. Graebe..
K:F major
FAc c>dc | def edc | d2z c2z | B2 A GEC |!
 FAc c>dc | def e2 d | _efe ded | cdc =B2 g |!
 =Bcd GAB | cdc cdc |cdc Gc=B | c3-c3 ||!
 cdg gag | gec cde | fgf def | f>ed d3 |!
def cdc |  BcA GcB | A d c Bed | cfe dgf |!
 e>dc f2 g |agf edc | f3g3 | agf ede | f3-f3 ||
